svg/icons/src/icon-happy.svg

<?xml version="1.0" encoding="UTF-8"?>
<svg width="32px" height="32px" viewBox="0 0 32 32" version="1.1" xmlns="http://www.w3.org/2000/svg" xmlns:xlink="http://www.w3.org/1999/xlink">
    <!-- Generator: Sketch 52.5 (67469) - http://www.bohemiancoding.com/sketch -->
    <title>icon-happy</title>
    <desc>Created with Sketch.</desc>
    <g id="icon-happy" stroke="none" stroke-width="1" fill="none" fill-rule="evenodd">
        <path d="M16,0 C7.163444,-5.41083001e-16 1.082166e-15,7.163444 0,16 C-1.082166e-15,24.836556 7.163444,32 16,32 C24.836556,32 32,24.836556 32,16 C31.9904469,7.16740407 24.8325959,0.00955313015 16,0 Z M16,29.3333333 C8.63620334,29.3333333 2.66666667,23.3637967 2.66666667,16 C2.66666667,8.63620334 8.63620334,2.66666667 16,2.66666667 C23.3637967,2.66666667 29.3333333,8.63620334 29.3333333,16 C29.3252502,23.3604459 23.3604459,29.3252502 16,29.3333333 Z" id="Shape" fill="#2333FF" fill-rule="nonzero"></path>
        <path d="M22.0813333,19.3333333 L9.91733333,19.3333333 C9.69937282,19.3398346 9.50376986,19.4688603 9.412,19.6666667 C9.30665584,19.8764043 9.30665584,20.1235957 9.412,20.3333333 C10.6089781,22.9098603 13.1600983,24.5878892 16,24.6666667 C18.8397066,24.5872691 21.3905298,22.9094356 22.588,20.3333333 C22.6933442,20.1235957 22.6933442,19.8764043 22.588,19.6666667 C22.4962644,19.468226 22.2998779,19.3390244 22.0813333,19.3333333 Z" id="Path" fill="#2333FF"></path>
        <circle id="Oval" fill="#2333FF" cx="10.6666667" cy="12" r="2.66666667"></circle>
        <circle id="Oval" fill="#2333FF" cx="21.3333333" cy="12" r="2.66666667"></circle>
    </g>
</svg>

<svg width="32" height="32" xmlns="http://www.w3.org/2000/svg"><g fill="#2333FF" fill-rule="evenodd"><path d="M16 0C7.163 0 0 7.163 0 16s7.163 16 16 16 16-7.163 16-16C31.99 7.167 24.833.01 16 0zm0 29.333c-7.364 0-13.333-5.97-13.333-13.333C2.667 8.636 8.637 2.667 16 2.667c7.364 0 13.333 5.97 13.333 13.333C29.325 23.36 23.36 29.325 16 29.333z" fill-rule="nonzero"/><path d="M22.081 19.333H9.917a.576.576 0 0 0-.505.334.743.743 0 0 0 0 .666A7.493 7.493 0 0 0 16 24.667a7.496 7.496 0 0 0 6.588-4.334.743.743 0 0 0 0-.666.575.575 0 0 0-.507-.334z"/><circle cx="10.667" cy="12" r="2.667"/><circle cx="21.333" cy="12" r="2.667"/></g></svg>
